icons/op-gitlab-pipeline-status-skipped-16.svg

<svg width="16" height="16" viewBox="0 0 16 16" fill="none" xmlns="http://www.w3.org/2000/svg">

<path fill-rule="evenodd" clip-rule="evenodd" d="M2.34315 13.6569C3.84344 15.1571 5.87827 16 8 16C10.1217 16 12.1566 15.1571 13.6569 13.6569C15.1571 12.1566 16 10.1217 16 8C16 5.87827 15.1571 3.84344 13.6569 2.34315C12.1566 0.842855 10.1217 0 8 0C5.87827 0 3.84344 0.842855 2.34315 2.34315C0.842855 3.84344 0 5.87827 0 8C0 10.1217 0.842855 12.1566 2.34315 13.6569ZM10.6241 14.3352C9.79217 14.6798 8.90049 14.8571 8 14.8571C6.18137 14.8571 4.43723 14.1347 3.15127 12.8487C1.8653 11.5628 1.14286 9.81863 1.14286 8C1.14286 6.18137 1.8653 4.43723 3.15127 3.15127C4.43723 1.8653 6.18137 1.14286 8 1.14286C8.90049 1.14286 9.79217 1.32022 10.6241 1.66483C11.4561 2.00943 12.212 2.51452 12.8487 3.15127C13.4855 3.78801 13.9906 4.54394 14.3352 5.37589C14.6798 6.20783 14.8571 7.09951 14.8571 8C14.8571 8.90049 14.6798 9.79217 14.3352 10.6241C13.9906 11.4561 13.4855 12.212 12.8487 12.8487C12.212 13.4855 11.4561 13.9906 10.6241 14.3352Z" fill="black"/>
<path d="M7.33143 8.04571L5.23314 5.94629C5.17094 5.88251 5.1365 5.79671 5.13736 5.70763C5.13821 5.61855 5.17429 5.53342 5.23771 5.47086L5.63657 5.072C5.66715 5.03991 5.70387 5.01427 5.74453 4.99662C5.7852 4.97897 5.82899 4.96965 5.87332 4.96923C5.91765 4.9688 5.96161 4.97727 6.00261 4.99414C6.04361 5.01101 6.08081 5.03593 6.112 5.06743L8.64229 7.59771C8.64991 7.60535 8.65716 7.61336 8.664 7.62171L8.81486 7.77371C8.94057 7.89943 8.93829 8.10629 8.81486 8.22857L6.104 10.9406C6.0436 11.0007 5.96182 11.0345 5.87657 11.0345C5.79132 11.0345 5.70955 11.0007 5.64914 10.9406L5.27086 10.5623C5.21118 10.5014 5.17775 10.4195 5.17775 10.3343C5.17775 10.249 5.21118 10.1672 5.27086 10.1063L7.33143 8.04571ZM10.2343 8.04571L8.136 5.94629C8.07379 5.88251 8.03936 5.79671 8.04021 5.70763C8.04107 5.61855 8.07715 5.53342 8.14057 5.47086L8.53943 5.072C8.57001 5.03991 8.60672 5.01427 8.64739 4.99662C8.68805 4.97897 8.73185 4.96965 8.77618 4.96923C8.82051 4.9688 8.86447 4.97727 8.90547 4.99414C8.94647 5.01101 8.98366 5.03593 9.01486 5.06743L11.5451 7.59771C11.5528 7.60535 11.56 7.61336 11.5669 7.62171L11.7177 7.77371C11.8434 7.89943 11.8411 8.10629 11.7177 8.22857L9.00686 10.9406C8.94645 11.0007 8.86468 11.0345 8.77943 11.0345C8.69418 11.0345 8.6124 11.0007 8.552 10.9406L8.17371 10.5623C8.11403 10.5014 8.08061 10.4195 8.08061 10.3343C8.08061 10.249 8.11403 10.1672 8.17371 10.1063L10.2343 8.04571Z" fill="black"/>

</svg>

<svg xmlns="http://www.w3.org/2000/svg" width="16" height="16" viewBox="0 0 16 16"><path d="M2.343 13.657A8 8 0 1 1 13.658 2.343 8 8 0 0 1 2.343 13.657Zm8.281.678a6.846 6.846 0 0 0 3.711-3.711 6.851 6.851 0 0 0 0-5.248 6.846 6.846 0 0 0-3.711-3.711 6.857 6.857 0 1 0 0 12.67Z"/><path d="m7.331 8.046-2.098-2.1a.335.335 0 0 1 .005-.475l.399-.399a.331.331 0 0 1 .475-.005l2.53 2.531a.17.17 0 0 1 .022.024l.151.152a.324.324 0 0 1 0 .455l-2.711 2.712a.323.323 0 0 1-.455 0l-.378-.379a.325.325 0 0 1 0-.456l2.06-2.06Zm2.903 0-2.098-2.1a.335.335 0 0 1 .005-.475l.398-.399a.333.333 0 0 1 .476-.005l2.53 2.531a.17.17 0 0 1 .022.024l.151.152a.325.325 0 0 1 0 .455l-2.711 2.712a.323.323 0 0 1-.455 0l-.378-.379a.325.325 0 0 1 0-.456l2.06-2.06Z"/></svg>
